icons/folder-jinja_light.svg

<svg xmlns="http://www.w3.org/2000/svg" viewBox="0 0 32 32">
  <path d="M13.84376,7.53645l-1.28749-1.0729A2,2,0,0,0,11.27591,6H4A2,2,0,0,0,2,8V24a2,2,0,0,0,2,2H28a2,2,0,0,0,2-2V10a2,2,0,0,0-2-2H15.12412A2,2,0,0,1,13.84376,7.53645Z" style="fill: #616161"/>
  <path d="M32,17V14a41.26251,41.26251,0,0,1-9,1,41.26251,41.26251,0,0,1-9-1v3a36.08426,36.08426,0,0,0,3.93805.6814L17.72729,20H14v2h3.54547L17,28h3V22h6v6h3l-.54547-6H32V20H28.27271L28.062,17.6814A36.08426,36.08426,0,0,0,32,17Zm-6,3H24V18H22v2H20V17.88354C20.93811,17.95386,21.94452,18,23,18s2.06189-.04614,3-.11646Z" style="fill: #f5f5f5;fill-rule: evenodd"/>
</svg>

<svg xmlns="http://www.w3.org/2000/svg" viewBox="0 0 32 32"><path fill="#616161" d="m13.844 7.536-1.288-1.072A2 2 0 0 0 11.276 6H4a2 2 0 0 0-2 2v16a2 2 0 0 0 2 2h24a2 2 0 0 0 2-2V10a2 2 0 0 0-2-2H15.124a2 2 0 0 1-1.28-.464Z"/><path fill="#f5f5f5" fill-rule="evenodd" d="M32 17v-3a41.263 41.263 0 0 1-9 1 41.263 41.263 0 0 1-9-1v3a36.084 36.084 0 0 0 3.938.681L17.728 20H14v2h3.545L17 28h3v-6h6v6h3l-.545-6H32v-2h-3.727l-.211-2.319A36.084 36.084 0 0 0 32 17Zm-6 3h-2v-2h-2v2h-2v-2.116c.938.07 1.945.116 3 .116s2.062-.046 3-.116Z"/></svg>
